icons/image.svg

<svg fill="none" height="28" viewBox="0 0 28 28" width="28" xmlns="http://www.w3.org/2000/svg"><g fill="#fff"><path clip-rule="evenodd" d="m7.85999 9.38486c1.00146-.01351 2.22401.06481 3.43161.20703 1.2077.14225 2.4335.35265 3.4395.61031.5014.1285.9708.2737 1.3642.4385.3591.1504.7859.3696 1.0762.7012.3197.3653.4569.8687.5313 1.2568.0833.4351.1258.9479.1435 1.4903.0356 1.0893-.0302 2.4101-.1533 3.707-.1234 1.2998-.307 2.6047-.5137 3.668-.1031.5305-.2141 1.0153-.331 1.415-.1061.3628-.2492.7719-.4522 1.0635-.1874.269-.4434.4225-.6279.5107-.1974.0944-.4125.1611-.6192.21-.4144.098-.9162.155-1.4482.1846-1.0724.0596-2.4094.0159-3.73242-.1026-1.32338-.1185-2.67199-.3159-3.7666-.5762-.54479-.1295-1.05425-.2809-1.47558-.458-.37362-.157-.85896-.4051-1.15137-.8183-.25537-.3611-.37348-.837-.44141-1.2364-.07445-.4379-.11427-.9531-.12793-1.5029-.02738-1.1027.0486-2.434.20508-3.7519.15635-1.3167.39745-2.6547.71387-3.7676.15799-.5557.34162-1.078.55273-1.5215.20175-.4237.47033-.8663.8418-1.17383.35376-.29274.84069-.39975 1.17773-.4541.39565-.06375.86497-.09287 1.36329-.09961zm.02734 2.00004c-.44762.006-.81004.0329-1.07227.0752-.14373.0231-.22328.0449-.25781.0556-.05568.0633-.15358.2012-.27539.4571-.14708.309-.29389.7176-.43359 1.2089-.27891.9813-.50426 2.2089-.65235 3.4561-.14795 1.2463-.21492 2.4793-.19043 3.4658.01229.4947.04682.9062.09961 1.2168.03829.2252.07667.3454.09473.3945.03291.0215.1207.0757.30078.1514.2815.1183.67495.2411 1.16406.3574.97376.2315 2.22136.4175 3.48143.5303 1.2607.1129 2.4964.1493 3.4434.0967.477-.0266.8471-.0743 1.0986-.1338.0472-.0112.0858-.0237.1172-.0332.03-.0764.0729-.1947.123-.3662.0935-.3197.1918-.7391.2881-1.2344.1923-.9891.3671-2.229.4854-3.4756.1186-1.2496.1782-2.4791.1465-3.4531-.016-.489-.0544-.8873-.1104-1.1797-.0374-.1952-.0736-.2917-.0869-.3262-.0401-.026-.1385-.0836-.3281-.1631-.2712-.1135-.6397-.2306-1.0889-.3457-.8952-.2293-2.0277-.4253-3.1758-.5605-1.14822-.1352-2.28013-.2063-3.17087-.1943z" fill-rule="evenodd"/><path d="m15.3199 4.00302c.9854-.01852 2.2074.0486 3.417.18653 1.2067.13761 2.4402.35019 3.4424.63379.4989.14118.9728.30925 1.3672.51074.314.16042.7003.40206.959.77051l.1025.16504.0664.13672c.1461.32941.2228.72119.2705 1.07714.0587.43755.0892.95007.0987 1.49805.019 1.09866-.0454 2.41076-.166 3.68946-.1206 1.2776-.3006 2.5515-.5205 3.5732-.1095.5083-.2342.9784-.375 1.3643-.0704.1928-.1507.3846-.2461.5566-.0893.1608-.2257.3678-.4268.5342-.6149.5085-1.4311.5549-1.9609.5342-.583-.0228-1.1352-.1436-1.4532-.2285-.5332-.1426-.8501-.6903-.708-1.2237.1425-.5336.691-.8514 1.2246-.7089.2422.0646.6352.1492 1.0137.164.1878.0074.3438-.0038.461-.0283.0509-.0107.0859-.0249.1093-.0342.0274-.0526.0658-.1332.1084-.25.0969-.2654.1981-.6382.2979-1.1015.1984-.9219.3686-2.1124.4844-3.3389.1157-1.2261.1756-2.461.1582-3.4668-.0088-.50375-.0373-.93346-.0821-1.26758-.0223-.1663-.0472-.29752-.0722-.39551-.0128-.04985-.0265-.08379-.0342-.10547-.0283-.02215-.0929-.06947-.2188-.13379-.2326-.11882-.5689-.24463-1.0019-.36718-.8618-.24386-1.9808-.43973-3.126-.57032-1.1422-.13022-2.2729-.19129-3.1514-.1748-.442.00831-.7957.03596-1.0439.07617-.077.01248-.1352.02467-.1768.03516-.2718.31925-.3935.83197-.4775 1.72168-.052.5497-.5401.95325-1.0899.90136-.5495-.05193-.9528-.53933-.9013-1.08886.0846-.89615.2285-2.1692 1.1582-3.05957l.0791-.06934c.1863-.15157.3902-.23398.5293-.28125.1779-.06045.3702-.10324.5586-.13379.3786-.06136.8363-.09137 1.3261-.10059z"/></g></svg>

<svg width="28" height="28" viewBox="0 0 28 28" fill="none" xmlns="http://www.w3.org/2000/svg">
<path fill-rule="evenodd" clip-rule="evenodd" d="M7.85999 9.38486C8.86145 9.37135 10.084 9.44967 11.2916 9.59189C12.4993 9.73414 13.7251 9.94454 14.7311 10.2022C15.2325 10.3307 15.7019 10.4759 16.0953 10.6407C16.4544 10.7911 16.8812 11.0103 17.1715 11.3419C17.4912 11.7072 17.6284 12.2106 17.7028 12.5987C17.7861 13.0338 17.8286 13.5466 17.8463 14.089C17.8819 15.1783 17.8161 16.4991 17.693 17.796C17.5696 19.0958 17.386 20.4007 17.1793 21.464C17.0762 21.9945 16.9652 22.4793 16.8483 22.879C16.7422 23.2418 16.5991 23.6509 16.3961 23.9425C16.2087 24.2115 15.9527 24.365 15.7682 24.4532C15.5708 24.5476 15.3557 24.6143 15.149 24.6632C14.7346 24.7612 14.2328 24.8182 13.7008 24.8478C12.6284 24.9074 11.2914 24.8637 9.96838 24.7452C8.645 24.6267 7.29639 24.4293 6.20178 24.169C5.65699 24.0395 5.14753 23.8881 4.7262 23.711C4.35258 23.554 3.86724 23.3059 3.57483 22.8927C3.31946 22.5316 3.20135 22.0557 3.13342 21.6563C3.05897 21.2184 3.01915 20.7032 3.00549 20.1534C2.97811 19.0507 3.05409 17.7194 3.21057 16.4015C3.36692 15.0848 3.60802 13.7468 3.92444 12.6339C4.08243 12.0782 4.26606 11.5559 4.47717 11.1124C4.67892 10.6887 4.9475 10.2461 5.31897 9.93857C5.67273 9.64583 6.15966 9.53882 6.4967 9.48447C6.89235 9.42072 7.36167 9.3916 7.85999 9.38486ZM7.88733 11.3849C7.43971 11.3909 7.07729 11.4178 6.81506 11.4601C6.67133 11.4832 6.59178 11.505 6.55725 11.5157C6.50157 11.579 6.40367 11.7169 6.28186 11.9728C6.13478 12.2818 5.98797 12.6904 5.84827 13.1817C5.56936 14.163 5.34401 15.3906 5.19592 16.6378C5.04797 17.8841 4.981 19.1171 5.00549 20.1036C5.01778 20.5983 5.05231 21.0098 5.1051 21.3204C5.14339 21.5456 5.18177 21.6658 5.19983 21.7149C5.23274 21.7364 5.32053 21.7906 5.50061 21.8663C5.78211 21.9846 6.17556 22.1074 6.66467 22.2237C7.63843 22.4552 8.88603 22.6412 10.1461 22.754C11.4068 22.8669 12.6425 22.9033 13.5895 22.8507C14.0665 22.8241 14.4366 22.7764 14.6881 22.7169C14.7353 22.7057 14.7739 22.6932 14.8053 22.6837C14.8353 22.6073 14.8782 22.489 14.9283 22.3175C15.0218 21.9978 15.1201 21.5784 15.2164 21.0831C15.4087 20.094 15.5835 18.8541 15.7018 17.6075C15.8204 16.3579 15.88 15.1284 15.8483 14.1544C15.8323 13.6654 15.7939 13.2671 15.7379 12.9747C15.7005 12.7795 15.6643 12.683 15.651 12.6485C15.6109 12.6225 15.5125 12.5649 15.3229 12.4854C15.0517 12.3719 14.6832 12.2548 14.234 12.1397C13.3388 11.9104 12.2063 11.7144 11.0582 11.5792C9.90998 11.444 8.77807 11.3729 7.88733 11.3849Z" fill="white"/>
<path d="M15.3199 4.00302C16.3053 3.9845 17.5273 4.05162 18.7369 4.18955C19.9436 4.32716 21.1771 4.53974 22.1793 4.82334C22.6782 4.96452 23.1521 5.13259 23.5465 5.33408C23.8605 5.4945 24.2468 5.73614 24.5055 6.10459L24.608 6.26963L24.6744 6.40635C24.8205 6.73576 24.8972 7.12754 24.9449 7.48349C25.0036 7.92104 25.0341 8.43356 25.0436 8.98154C25.0626 10.0802 24.9982 11.3923 24.8776 12.671C24.757 13.9486 24.577 15.2225 24.3571 16.2442C24.2476 16.7525 24.1229 17.2226 23.9821 17.6085C23.9117 17.8013 23.8314 17.9931 23.736 18.1651C23.6467 18.3259 23.5103 18.5329 23.3092 18.6993C22.6943 19.2078 21.8781 19.2542 21.3483 19.2335C20.7653 19.2107 20.2131 19.0899 19.8951 19.005C19.3619 18.8624 19.045 18.3147 19.1871 17.7813C19.3296 17.2477 19.8781 16.9299 20.4117 17.0724C20.6539 17.137 21.0469 17.2216 21.4254 17.2364C21.6132 17.2438 21.7692 17.2326 21.8864 17.2081C21.9373 17.1974 21.9723 17.1832 21.9957 17.1739C22.0231 17.1213 22.0615 17.0407 22.1041 16.9239C22.201 16.6585 22.3022 16.2857 22.402 15.8224C22.6004 14.9005 22.7706 13.71 22.8864 12.4835C23.0021 11.2574 23.062 10.0225 23.0446 9.0167C23.0358 8.51295 23.0073 8.08324 22.9625 7.74912C22.9402 7.58282 22.9153 7.4516 22.8903 7.35361C22.8775 7.30376 22.8638 7.26982 22.8561 7.24814C22.8278 7.22599 22.7632 7.17867 22.6373 7.11435C22.4047 6.99553 22.0684 6.86972 21.6354 6.74717C20.7736 6.50331 19.6546 6.30744 18.5094 6.17685C17.3672 6.04663 16.2365 5.98556 15.358 6.00205C14.916 6.01036 14.5623 6.03801 14.3141 6.07822C14.2371 6.0907 14.1789 6.10289 14.1373 6.11338C13.8655 6.43263 13.7438 6.94535 13.6598 7.83506C13.6078 8.38476 13.1197 8.78831 12.5699 8.73642C12.0204 8.68449 11.6171 8.19709 11.6686 7.64756C11.7532 6.75141 11.8971 5.47836 12.8268 4.58799L12.9059 4.51865C13.0922 4.36708 13.2961 4.28467 13.4352 4.2374C13.6131 4.17695 13.8054 4.13416 13.9938 4.10361C14.3724 4.04225 14.8301 4.01224 15.3199 4.00302Z" fill="white"/>
</svg>
